X: 1781
T: Dire Gelt
Z: Temple Aliyah Klezmer Band Song Book
F: https://www.youtube.com/watch?v=3NZq8WHxGn8
M: 2/4
L: 1/8
K: Em
"Em" G/F/ E2 E|"B7" FG A2 |"Em" G/F/ E2 G|"B7" F^D B,2|\
"Em" G/F/ E2 E|"Am" FG A2 |"B7" B/B/A GF |"Em" E2-E2  |
G3/2E/ EE     |"Am"G2 A2  |"Em" GE EE    |"Am" A3/2A/ |\
"Em" GE EE    |"Am"G/G/ A3|"B7" BA/A/ GF | E2 "D" D2  |
"G"G/G/ G2 B  |"D" dd d2  |"Em"G/F/ E2 G |"B7" F^D B,2|\
"Em"G/F/ E2 E |"Am" AB c2 |"B7" B/B/A GF |"Em" E3 z   |
